!!!COM: Anonymous
!!!CDT: [?]
!!!OTL@@POL: Królewnie wiecznej
!!!TXO: Polish/Latin
!!!ODT: 
!!!GTL: Hymnbook E
!!!ARL: Opactwo św. Wojciecha, Staniątki 
!!!voices:	4
**kern	**text	**kern	**text	**kern	**text	**kern	**text
*staff4	*staff4	*staff3	*staff3	*staff2	*staff2	*staff1	*staff1
*I"Basso	*	*I"Canto III	*	*I"Canto II	*	*I"Canto I	*
=1-	=1-	=1-	=1-	=1-	=1-	=1-	=1-
*clefF4	*	*clefG2	*	*clefG2	*	*clefG2	*
*k[]	*	*k[]	*	*k[]	*	*k[]	*
*met(c|)	*	*met(c|)	*	*met(c|)	*	*met(c|)	*
*M2/2	*	*M2/2	*	*M2/2	*	*M2/2	*
2C/	Kr&oacute;-	2c/	Kr&oacute;-	2e/	Kr&oacute;-	2g/	Kr&oacute;-
4C/	-lew-	4c/	-lew-	4e/	-lew-	4g/	-lew-
4C/	-nie	4c/	-nie	4e/	-nie	4g/	-nie
=2	=2	=2	=2	=2	=2	=2	=2
2F\	wiecz-	2c/	wiecz-	2f/	wiecz-	2a/	wiecz-
2D\	-nej	2d/	-nej	2f/	-nej	2a/	-nej
=3	=3	=3	=3	=3	=3	=3	=3
4G\	nie-	4d/	nie-	4g/	nie-	4b\	nie-
2c\	-ba	2e/	-ba	2g/	-ba	2cc\	-ba
4A\	wy-	4e/	wy-	4a/	wy-	4cc\	wy-
=4	=4	=4	=4	=4	=4	=4	=4
2d\	-so-	2f/	-so-	2b\	-so-	2dd\	-so-
2c\	-kie-	2g/	-kie-	2cc\	-kie-	2ee\	-kie-
=5	=5	=5	=5	=5	=5	=5	=5
1G	-go	1g	-go	1b	-go	1dd	-go
=6	=6	=6	=6	=6	=6	=6	=6
2A\	I	2e/	I	2a/	I	2cc\	I
4c\	po-	4e/	po-	4g/	po-	4cc\	po-
4c\	-śre-	4e/	-śre-	4g/	-śre-	4cc\	-śre-
=7	=7	=7	=7	=7	=7	=7	=7
2G\	-dni-	2d/	-dni-	2g/	-dni-	2b\	-dni-
2D\	-cy	2d/	-cy	2f#/	-cy	2a/	-cy
=8	=8	=8	=8	=8	=8	=8	=8
2G\	świa-	2d/	świa-	2g/	świa-	2b\	świa-
2c\	-ta	2e/	-ta	2g/	-ta	2cc\	-ta
=9	=9	=9	=9	=9	=9	=9	=9
2F#\	u-	2d/	u-	2a/	u-	2cc\	u-
2G\	-pa-	2e/	-pa-	[2g/	-pa-	2b\	-pa-
=10	=10	=10	=10	=10	=10	=10	=10
1D	-dłe-	1d	-dłe-	4g/]	.	1a	-dłe-
.	.	.	.	8f#/L	-dłe-	.	.
.	.	.	.	8e/J	.	.	.
.	.	.	.	2f#/	.	.	.
=11	=11	=11	=11	=11	=11	=11	=11
1GG	-go	1d	-go	1g	-go	1b	-go
=12	=12	=12	=12	=12	=12	=12	=12
2c\	Śpie-	2e/	Śpie-	2g/	Śpie-	2cc\	Śpie-
4c\	-waj-	4e/	-waj-	4g/	-waj-	4cc\	-waj-
4B\	-my	4d/	-my	4g/	-my	4dd\	-my
=13	=13	=13	=13	=13	=13	=13	=13
2c\	chwa-	2e/	chwa-	2g/	chwa-	2cc\	chwa-
4G\	-łę	4d/	-łę	4g/	-łę	4b\	-łę
4G\	od-	4d/	od-	4g/	od-	4b\	od-
=14	=14	=14	=14	=14	=14	=14	=14
2D\	-da-	2d/	-da-	2f#/	-da-	2a/	-da-
2G\	-jąc	2d/	-jąc	2g/	-jąc	2b\	-jąc
=15	=15	=15	=15	=15	=15	=15	=15
2c\	sa-	2e/	sa-	2.g/	sa-	2cc\	sa-
2A\	-me-	2c/	-me-	.	.	2cc\	-me-
.	.	.	.	4f#/	-me-	.	.
=16	=16	=16	=16	=16	=16	=16	=16
1G	-mu	1d	-mu	1g	-mu	1b	-mu
=17	=17	=17	=17	=17	=17	=17	=17
2F#\	Bo-	2f#/	Bo-	2a/	Bo-	2cc\	Bo-
2G\	-gu	2d/	-gu	[2g/	-gu	2b\	-gu
=18	=18	=18	=18	=18	=18	=18	=18
2C/	wie-	2e/	wie-	4g/]	.	2b\	wie-
.	.	.	.	8f#/L	wie-	.	.
.	.	.	.	8e/J	.	.	.
2D\	-czne-	2d/	-czne-	2f#/	-czne-	2a/	-czne-
=19	=19	=19	=19	=19	=19	=19	=19
[1GG	-mu.	[1B	-mu.	[1g	-mu.	[1g	-mu.
=20	=20	=20	=20	=20	=20	=20	=20
1GG]	.	1B]	.	1g]	.	1g]	.
==	==	==	==	==	==	==	==
*-	*-	*-	*-	*-	*-	*-	*-
!!!GTL: Hymnbook E
!!!EFL: 21/117
!!!YEM: Creative Commons CC/BY/NC/SA 4.0
!!!ENC: Marcin Konik
!!!END: 
!!!EED: Marcin Konik
!!!EEV: 
!!!ONB: Translated from MusicXML and edited by Marcin Konik
!!!CharacterEncoding: utf-8
!!!RDF**kern: l=long note in original notation
!!!RDF**kern: i=editorial accidental
!!muse2ps: z14jc180F
